docs/local/img/sprites/Instagram.svg

<svg width="32" height="32" viewBox="0 0 32 32" fill="none" xmlns="http://www.w3.org/2000/svg">
<g clip-path="url(#clip0_93_1418)">
<path d="M16 2.88125C20.275 2.88125 20.7813 2.9 22.4625 2.975C24.025 3.04375 24.8688 3.30625 25.4313 3.525C26.175 3.8125 26.7125 4.1625 27.2688 4.71875C27.8313 5.28125 28.175 5.8125 28.4625 6.55625C28.6813 7.11875 28.9438 7.96875 29.0125 9.525C29.0875 11.2125 29.1063 11.7188 29.1063 15.9875C29.1063 20.2625 29.0875 20.7688 29.0125 22.45C28.9438 24.0125 28.6813 24.8563 28.4625 25.4188C28.175 26.1625 27.825 26.7 27.2688 27.2563C26.7063 27.8188 26.175 28.1625 25.4313 28.45C24.8688 28.6688 24.0188 28.9313 22.4625 29C20.775 29.075 20.2688 29.0938 16 29.0938C11.725 29.0938 11.2188 29.075 9.5375 29C7.975 28.9313 7.13125 28.6688 6.56875 28.45C5.825 28.1625 5.2875 27.8125 4.73125 27.2563C4.16875 26.6938 3.825 26.1625 3.5375 25.4188C3.31875 24.8563 3.05625 24.0063 2.9875 22.45C2.9125 20.7625 2.89375 20.2563 2.89375 15.9875C2.89375 11.7125 2.9125 11.2063 2.9875 9.525C3.05625 7.9625 3.31875 7.11875 3.5375 6.55625C3.825 5.8125 4.175 5.275 4.73125 4.71875C5.29375 4.15625 5.825 3.8125 6.56875 3.525C7.13125 3.30625 7.98125 3.04375 9.5375 2.975C11.2188 2.9 11.725 2.88125 16 2.88125ZM16 0C11.6563 0 11.1125 0.01875 9.40625 0.09375C7.70625 0.16875 6.5375 0.44375 5.525 0.8375C4.46875 1.25 3.575 1.79375 2.6875 2.6875C1.79375 3.575 1.25 4.46875 0.8375 5.51875C0.44375 6.5375 0.16875 7.7 0.09375 9.4C0.01875 11.1125 0 11.6562 0 16C0 20.3438 0.01875 20.8875 0.09375 22.5938C0.16875 24.2938 0.44375 25.4625 0.8375 26.475C1.25 27.5313 1.79375 28.425 2.6875 29.3125C3.575 30.2 4.46875 30.75 5.51875 31.1562C6.5375 31.55 7.7 31.825 9.4 31.9C11.1063 31.975 11.65 31.9937 15.9938 31.9937C20.3375 31.9937 20.8813 31.975 22.5875 31.9C24.2875 31.825 25.4563 31.55 26.4688 31.1562C27.5188 30.75 28.4125 30.2 29.3 29.3125C30.1875 28.425 30.7375 27.5313 31.1438 26.4813C31.5375 25.4625 31.8125 24.3 31.8875 22.6C31.9625 20.8938 31.9813 20.35 31.9813 16.0063C31.9813 11.6625 31.9625 11.1188 31.8875 9.4125C31.8125 7.7125 31.5375 6.54375 31.1438 5.53125C30.75 4.46875 30.2063 3.575 29.3125 2.6875C28.425 1.8 27.5313 1.25 26.4813 0.84375C25.4625 0.45 24.3 0.175 22.6 0.1C20.8875 0.01875 20.3438 0 16 0Z" fill="#000100"/>
<path d="M16 7.78125C11.4625 7.78125 7.78125 11.4625 7.78125 16C7.78125 20.5375 11.4625 24.2188 16 24.2188C20.5375 24.2188 24.2188 20.5375 24.2188 16C24.2188 11.4625 20.5375 7.78125 16 7.78125ZM16 21.3312C13.0563 21.3312 10.6687 18.9438 10.6687 16C10.6687 13.0563 13.0563 10.6687 16 10.6687C18.9438 10.6687 21.3312 13.0563 21.3312 16C21.3312 18.9438 18.9438 21.3312 16 21.3312Z" fill="#000100"/>
<path d="M26.4625 7.45635C26.4625 8.51885 25.6 9.3751 24.5438 9.3751C23.4813 9.3751 22.625 8.5126 22.625 7.45635C22.625 6.39385 23.4875 5.5376 24.5438 5.5376C25.6 5.5376 26.4625 6.4001 26.4625 7.45635Z" fill="#000100"/>
</g>
<defs>
<clipPath id="clip0_93_1418">
<rect width="32" height="32" fill="white"/>
</clipPath>
</defs>
</svg>

<svg width="32" height="32" viewBox="0 0 32 32" fill="none" xmlns="http://www.w3.org/2000/svg"><g clip-path="url(#clip0_93_1418)" fill="#000100"><path d="M16 2.881c4.275 0 4.781.019 6.462.094 1.563.069 2.407.331 2.97.55a4.949 4.949 0 011.837 1.194 4.921 4.921 0 011.194 1.837c.218.563.48 1.413.55 2.969.074 1.688.093 2.194.093 6.463 0 4.274-.019 4.78-.094 6.462-.068 1.563-.33 2.406-.55 2.969a4.95 4.95 0 01-1.193 1.837 4.922 4.922 0 01-1.838 1.194c-.562.219-1.412.481-2.969.55-1.687.075-2.193.094-6.462.094-4.275 0-4.781-.019-6.463-.094-1.562-.069-2.406-.331-2.968-.55a4.949 4.949 0 01-1.838-1.194 4.922 4.922 0 01-1.193-1.837c-.22-.563-.482-1.413-.55-2.969-.075-1.688-.094-2.194-.094-6.462 0-4.275.018-4.782.093-6.463.07-1.563.332-2.406.55-2.969A4.948 4.948 0 014.732 4.72 4.921 4.921 0 016.57 3.525c.562-.219 1.412-.481 2.968-.55C11.22 2.9 11.726 2.881 16 2.881zM16 0c-4.344 0-4.887.019-6.594.094-1.7.075-2.869.35-3.881.744-1.056.412-1.95.956-2.838 1.85-.893.887-1.437 1.78-1.85 2.83C.444 6.539.17 7.7.094 9.4.019 11.113 0 11.656 0 16c0 4.344.019 4.887.094 6.594.075 1.7.35 2.868.744 3.881.412 1.056.956 1.95 1.85 2.837a7.82 7.82 0 002.83 1.844c1.02.394 2.182.669 3.882.744 1.706.075 2.25.094 6.594.094 4.343 0 4.887-.019 6.593-.094 1.7-.075 2.87-.35 3.882-.744a7.82 7.82 0 002.831-1.843 7.822 7.822 0 001.844-2.832c.394-1.019.669-2.181.744-3.881.074-1.706.093-2.25.093-6.594s-.019-4.887-.094-6.594c-.075-1.7-.35-2.868-.743-3.88a7.494 7.494 0 00-1.831-2.845A7.82 7.82 0 0026.48.845C25.462.45 24.3.175 22.6.1 20.887.019 20.344 0 16 0z"/><path d="M16 7.781A8.22 8.22 0 007.781 16 8.22 8.22 0 0016 24.219 8.22 8.22 0 0024.219 16 8.22 8.22 0 0016 7.781zm0 13.55a5.332 5.332 0 11.001-10.664A5.332 5.332 0 0116 21.331zM26.462 7.456a1.92 1.92 0 11-3.838 0 1.92 1.92 0 013.838 0z"/></g><defs><clipPath id="clip0_93_1418"><path fill="#fff" d="M0 0h32v32H0z"/></clipPath></defs></svg>
